src/assets/icons/icon_check_white.svg

<svg width="16" height="16" viewBox="0 0 16 16" fill="none" xmlns="http://www.w3.org/2000/svg">
<path fill-rule="evenodd" clip-rule="evenodd" d="M13.6869 4.31311C13.8822 4.50838 13.8822 4.82496 13.6869 5.02022L7.02026 11.6869C6.92649 11.7807 6.79932 11.8333 6.66671 11.8333C6.5341 11.8333 6.40692 11.7807 6.31315 11.6869L2.97982 8.35355C2.78456 8.15829 2.78456 7.84171 2.97982 7.64645C3.17508 7.45118 3.49167 7.45118 3.68693 7.64645L6.66671 10.6262L12.9798 4.31311C13.1751 4.11785 13.4917 4.11785 13.6869 4.31311Z" fill="#ffffff"/>
</svg>

<svg xmlns="http://www.w3.org/2000/svg" width="16" height="16" fill="none" viewBox="0 0 16 16">
    <path fill="#fff" fill-rule="evenodd" d="M13.687 4.313c.195.195.195.512 0 .707L7.02 11.687c-.094.094-.22.146-.353.146-.133 0-.26-.052-.354-.146L2.98 8.354c-.195-.196-.195-.512 0-.707.195-.196.512-.196.707 0l2.98 2.98 6.313-6.314c.195-.195.512-.195.707 0z" clip-rule="evenodd"/>
</svg>
